X:0303
T:Saint Patrick's Day
P:Saint Patrick's Day
C:Gow's Repository
R:Jig (8x24)
B:RSCDS 3-3
Z:Anselm Lingnau <anselm@strathspey.org>
M:6/8
L:1/8
K:G
"G"G>AG GBc|"D"d>ed "G"dBG|"D7"A>Bc "G"BGD|"C"E>FE "Am"[E2C2] "D7"D|\
"G"[GB,]>AG GBc|"D"d>ed "Em"dBG|
				"D"A>Bc "G"BGD|"C"E2"D7"[FC] "G"[G2B,2]||\
d|"G"def "Em"[g2G2]e|"D"[f2G2]d "C"[e2G2]B2|\
			"G"def "Em"[g2G2]e2|"D"[f2G2]d "C"[e2G2]g|
  "G"G>AG GBc|"D"d>ed "Em"dBG|"Am"A>Bc "G"BGD|"D"[E2C2][FC] "G"[G3B,3]|\
  "G"def "Em"[g2G2]e|"D"[f2G2]d "C"[e2G2]B2|
			"G"def "Em"[g2G2]e2|"D"[f2G2]d "C"[e2G2]g|\
  "G"G>AG GBc|"D"d>ed "Em"dBG|"Am"A>Bc "G"BGD|"D"[E2C2][FC] "G"[G3B,3]|]

